src/assets/images/transfer.svg

<svg height="95" viewBox="0 0 95 95" width="95" xmlns="http://www.w3.org/2000/svg"><g fill="none" fill-rule="evenodd"><g><path d="m47.5 85.952381c20.0707008 0 36.1904762-16.4358495 36.1904762-36.1904762h-2.8446663c0 18.3322936-14.8554793 33.3458099-33.3458099 33.3458099zm-36.1904762-36.1904762c0 20.0707007 16.1197754 36.1904762 36.1904762 36.1904762v-2.8446663c-18.4903306 0-33.3458099-14.8554793-33.3458099-33.3458099zm36.1904762-36.1904762c-20.0707008 0-36.1904762 16.1197754-36.1904762 36.1904762h2.8446663c0-18.4903307 14.8554793-33.34581 33.3458099-33.34581zm36.1904762 36.1904762c0-20.0707008-16.1197754-36.1904762-36.1904762-36.1904762v2.8446662c18.4903306 0 33.3458099 14.8554793 33.3458099 33.34581z" fill="#4d4d4d" fill-rule="nonzero"/><path d="m42.976191 11.309524h9.047619v61.071429h-9.047619z" fill="#fff" fill-rule="nonzero"/><g fill-rule="nonzero" transform="translate(13.571429 31.666667)"><path d="m0 32.328262 54.0939787-32.328262 4.7155451 8.38602372-54.09397867 32.32826198z" fill="#fff"/><path d="m2.26190476 33.6862852 52.85815924-31.42438044 1.427555 2.50419099-52.85815917 31.42438045z" fill="#4d4d4d"/></g><path d="m45.238095 13.571429h4.52381v61.071429h-4.52381z" fill="#4d4d4d" fill-rule="nonzero"/><path d="m76.9047619 48.6309524c0-15.707672-13.0687831-28.2738095-29.4047619-28.2738095s-29.4047619 12.5661375-29.4047619 28.2738095c0 15.7076719 13.0687831 28.2738095 29.4047619 28.2738095s29.4047619-12.7232143 29.4047619-28.2738095z" fill="#fff" fill-rule="nonzero"/><path d="m32.797619 49.7619048c5.2777778-5.4688434 7.9166667-9.6446676 7.9166667-12.5274726 0-4.3242075-3.5444124-7.8296703-7.9166667-7.8296703-4.3722542 0-7.9166666 3.5054628-7.9166666 7.8296703 0 2.882805 2.6388889 7.0586292 7.9166666 12.5274726z" stroke="#4d4d4d" stroke-width="1.8"/><g fill-rule="nonzero"><path d="m29.4047619 60.0489237c3.6190476 6.0420743 10.3636364 10.0701239 18.0952381 10.0701239v-2.7886497c-6.7445887 0-12.5021645-3.4083496-15.4632035-8.5208741zm18.0952381 10.0701239c11.3807649 0 20.3571429-9.3106312 20.3571429-20.3571428h-2.8852644c0 9.6262458-7.6940382 17.5166113-17.4718785 17.5166113zm20.3571429-20.3571428c0-11.3621263-8.976378-20.3571429-20.3571429-20.3571429v2.8405316c9.6175478 0 17.4718785 7.7325581 17.4718785 17.5166113z" fill="#4d4d4d"/><path d="m52.0238095 49.7619048v-24.8809524h-9.047619v24.8809524zm-22.4776785 15.8333333 20.2157738-12.0219348-4.6651786-8.3352081-20.2157738 12.0219348zm17.953869-15.8333333 2.2619048 4.5238095 2.2619047-1.5659341v-2.9578754z" fill="#fff"/><path d="m29.404762 61.071429h9.047619v4.52381h-9.047619z" fill="#fff"/><path d="m49.7619048 49.7619048v-22.6190477h-4.5238096v22.6190477z" fill="#4d4d4d"/><path d="m28.5631229 61.0714286 18.9368771-11.0465117-1.4202658-2.5249169-18.9368771 11.0465116z" fill="#4d4d4d"/><path d="m47.6130952 49.875 1.1309524.9047619.9047619-.3392857v-.5654762z" fill="#4d4d4d"/><path d="m38.452381 69.3479437-1.6754851-6.0146104-2.8483245.7711039 1.675485 6.0146104zm-1.4908009-3.7527056 6.0146104-1.675485-.7711039-2.8483245-6.0146104 1.675485zm-.7711039-1.3365801-.4112554-.9253247-1.8506494.2056277.4112554.9253247z" fill="#4d4d4d"/></g></g><circle cx="32.5" cy="35.5" r="3.5" stroke="#4d4d4d" stroke-width="1.8"/></g></svg>

<?xml version="1.0" encoding="UTF-8"?>
<svg width="95px" height="95px" viewBox="0 0 95 95" version="1.1" xmlns="http://www.w3.org/2000/svg" xmlns:xlink="http://www.w3.org/1999/xlink">
    <title>Group 2</title>
    <g id="Design" stroke="none" stroke-width="1" fill="none" fill-rule="evenodd">
        <g id="ТУР" transform="translate(-448.000000, -941.000000)">
            <g id="Group-2" transform="translate(448.000000, 941.000000)">
                <g>
                    <path d="M47.5,85.952381 C67.5707008,85.952381 83.6904762,69.5165315 83.6904762,49.7619048 L80.8458099,49.7619048 C80.8458099,68.0941984 65.9903306,83.1077147 47.5,83.1077147 L47.5,85.952381 Z M11.3095238,49.7619048 C11.3095238,69.8326055 27.4292992,85.952381 47.5,85.952381 L47.5,83.1077147 C29.0096694,83.1077147 14.1541901,68.2522354 14.1541901,49.7619048 L11.3095238,49.7619048 Z M47.5,13.5714286 C27.4292992,13.5714286 11.3095238,29.691204 11.3095238,49.7619048 L14.1541901,49.7619048 C14.1541901,31.2715741 29.0096694,16.4160948 47.5,16.4160948 L47.5,13.5714286 Z M83.6904762,49.7619048 C83.6904762,29.691204 67.5707008,13.5714286 47.5,13.5714286 L47.5,16.4160948 C65.9903306,16.4160948 80.8458099,31.2715741 80.8458099,49.7619048 L83.6904762,49.7619048 Z" id="Shape" fill="#4D4D4D" fill-rule="nonzero"></path>
                    <rect id="Rectangle" fill="#FFFFFF" fill-rule="nonzero" x="42.9761905" y="11.3095238" width="9.04761905" height="61.0714286"></rect>
                    <g id="Group" transform="translate(13.571429, 31.666667)" fill-rule="nonzero">
                        <polygon id="Rectangle" fill="#FFFFFF" points="0 32.328262 54.0939787 0 58.8095238 8.38602372 4.71554513 40.7142857"></polygon>
                        <polygon id="Rectangle" fill="#4D4D4D" points="2.26190476 33.6862852 55.120064 2.26190476 56.547619 4.76609575 3.68945983 36.1904762"></polygon>
                    </g>
                    <rect id="Rectangle" fill="#4D4D4D" fill-rule="nonzero" x="45.2380952" y="13.5714286" width="4.52380952" height="61.0714286"></rect>
                    <path d="M76.9047619,48.6309524 C76.9047619,32.9232804 63.8359788,20.3571429 47.5,20.3571429 C31.1640212,20.3571429 18.0952381,32.9232804 18.0952381,48.6309524 C18.0952381,64.3386243 31.1640212,76.9047619 47.5,76.9047619 C63.8359788,76.9047619 76.9047619,64.1815476 76.9047619,48.6309524 Z" id="Path" fill="#FFFFFF" fill-rule="nonzero"></path>
                    <path d="M32.797619,49.7619048 C38.0753968,44.2930614 40.7142857,40.1172372 40.7142857,37.2344322 C40.7142857,32.9102247 37.1698733,29.4047619 32.797619,29.4047619 C28.4253648,29.4047619 24.8809524,32.9102247 24.8809524,37.2344322 C24.8809524,40.1172372 27.5198413,44.2930614 32.797619,49.7619048 Z" id="Oval" stroke="#4D4D4D" stroke-width="1.8"></path>
                    <path d="M29.4047619,60.0489237 C33.0238095,66.090998 39.7683983,70.1190476 47.5,70.1190476 L47.5,67.3303979 C40.7554113,67.3303979 34.9978355,63.9220483 32.0367965,58.8095238 L29.4047619,60.0489237 Z M47.5,70.1190476 C58.8807649,70.1190476 67.8571429,60.8084164 67.8571429,49.7619048 L64.9718785,49.7619048 C64.9718785,59.3881506 57.2778403,67.2785161 47.5,67.2785161 L47.5,70.1190476 L47.5,70.1190476 Z M67.8571429,49.7619048 C67.8571429,38.3997785 58.8807649,29.4047619 47.5,29.4047619 L47.5,32.2452935 C57.1175478,32.2452935 64.9718785,39.9778516 64.9718785,49.7619048 L67.8571429,49.7619048 Z" id="Shape" fill="#4D4D4D" fill-rule="nonzero"></path>
                    <path d="M52.0238095,49.7619048 L52.0238095,24.8809524 L42.9761905,24.8809524 L42.9761905,49.7619048 L52.0238095,49.7619048 Z M29.546131,65.5952381 L49.7619048,53.5733033 L45.0967262,45.2380952 L24.8809524,57.26003 L29.546131,65.5952381 Z M47.5,49.7619048 L49.7619048,54.2857143 L52.0238095,52.7197802 L52.0238095,49.7619048 L47.5,49.7619048 Z" id="Shape" fill="#FFFFFF" fill-rule="nonzero"></path>
                    <rect id="Rectangle" fill="#FFFFFF" fill-rule="nonzero" x="29.4047619" y="61.0714286" width="9.04761905" height="4.52380952"></rect>
                    <polygon id="Path" fill="#4D4D4D" fill-rule="nonzero" points="49.7619048 49.7619048 49.7619048 27.1428571 45.2380952 27.1428571 45.2380952 49.7619048"></polygon>
                    <polygon id="Path" fill="#4D4D4D" fill-rule="nonzero" points="28.5631229 61.0714286 47.5 50.0249169 46.0797342 47.5 27.1428571 58.5465116"></polygon>
                    <polygon id="Path" fill="#4D4D4D" fill-rule="nonzero" points="47.6130952 49.875 48.7440476 50.7797619 49.6488095 50.4404762 49.6488095 49.875"></polygon>
                    <path d="M38.452381,69.3479437 L36.7768959,63.3333333 L33.9285714,64.1044372 L35.6040564,70.1190476 L38.452381,69.3479437 Z M36.9615801,65.5952381 L42.9761905,63.9197531 L42.2050866,61.0714286 L36.1904762,62.7469136 L36.9615801,65.5952381 Z M36.1904762,64.258658 L35.7792208,63.3333333 L33.9285714,63.538961 L34.3398268,64.4642857 L36.1904762,64.258658 Z" id="Shape" fill="#4D4D4D" fill-rule="nonzero"></path>
                </g>
                <circle id="Oval" stroke="#4D4D4D" stroke-width="1.8" cx="32.5" cy="35.5" r="3.5"></circle>
            </g>
        </g>
    </g>
</svg>
